X:401
T:Sassafras
C:Buck White Ricky Skaggs solo added by Larry Tanner
N:Transcribed by Mike Stangeland
R:bluegrass
L:1/8
Q:1/4=232
M:4/4
K:A
z8 | z=c ^ce fa fe | a4 "D"[d3F3A,3]"A"[cEA,] | z2 af ef dc | dc A2 "D"[d3F3A,3]"A"[cEA,] | 
z=c ^ce fa fe | a2 a2 "D"[d3F3A,3]"A"[cEA,] | z2 af ec Bc | A4 "D"[d3F3A,3]"A"[cEA,] | 
[e3A3E3A,3][eAEA,] [eAEA,][e3A3E3A,3] | "C"=G2 A2 =c2 e=g | ze =ga zg a2 | "F"=c'2 a=g =fa gf | 
d=c Ad cA =FF | "E"EE E^D E2 [B2E2B,2] | [BEB,][B2E2B,2]B, CE F2 | "A"[c2A2] [c2A2] [cA][cA] [cA][cA] | 
[c2A2] [c2A2] AB d2 | "D"e2 Bd2A B2 | [d2F2A,2] [dFA,][d2F2A,2][dFA,] [dFA,]F | 
"A"EF Ac Be cf | ea fe a3a | "E"bg af ge fd | ec dB cA Bc | "A"ee c2 a2 ea | c'c' ac' e'e' e'e' | 
"D7"e'd'2=c'2b2a | za2f aa fe | "A"ce dc2d cB | zc BA2c BA | "E"GB AG "D"FA GF | 
"C"EG FE "E"DC B,C | "A"A,2 A,B, CE FE | AB ce fa fe | a2 a2 "D"[d3F3A,3]"A"[cEA,] | 
za fe fe dc | dc A2 "D"[d3F3A,3]"A"[cEA,] | zB, CE FA FE | A2 A2 "D"[d3F3A,3]"A"[cEA,] | 
zA A,2 AA,2A | A,2 A,2 "D"[d3F3A,3]"A"[cEA,] | z4 zG, A,B, | "C"=C2 C2 EC E=F | 
F=G F=F E=C B,^A, | "F"A,=C E=G =FG A=c | d=f2A fA fA | "E"eE eE dE dE | =cE cB/c/ BA GE | 
"A"AB ca g=g =f^f | =g=f ^fd Bd =cB | {=c}"D7"BA =GA =F^F AB | =cA [=gd][ae] dc dc | 
"A"cA FE AA, zA | A,B, CE FE {=G}^G2 | "E"zE zF GB cB | e2 ^d2 =d2 c{=c}B | BA FE B{=c}B BA | 
FE B{=c}B BA FE | "D7"FA B2 =c2 B2 | e2 d2 {B}=cA FE | "A"AE FA E^D =DB, | CE FA zE F{=G}^G | 
"E"eG =G{=F}^F "D"dF =F{^D}E | "C"=c3c "E"BA FE | "A"AE =GF (3EFE CE | A,8 | 


